X: 16
T:Trois jeunes tambours
T:Joli tambour
C:Paroles et musique : tradition du XVIIIe siècle
Z:Transcrit et/ou corrigé par Michel BELLON - 2006-04-28
Z:Pour toute observation mailto:galouvielle@free.fr
M:2/4
L:1/8
K:F
"F" c2A>G | F3 z/2C/2 | F>G A>B | "C7"A2Gz | G2G>A | G3z/2G/2 |
A>B c>d | "F"c>B A>G | F2 (3FED | "C7"C3C | "F"F>G A>B | (A2"C7"G2) | "F"F4 |]

%%footer $D   Galouvielle-MBe 2006 \n-- (--)
